app/img/icons/down_arrow.svg

<?xml version="1.0" encoding="UTF-8" standalone="no"?>
<svg height="613.171" id="svg3655" inkscape:version="0.41" sodipodi:docbase="/datas/Projs/Cliparts Stocker/tmp/AIGA" sodipodi:docname="AIGA_Down_Arrow_2.svg" sodipodi:version="0.32" width="612.164" xmlns="http://www.w3.org/2000/svg" xmlns:cc="http://web.resource.org/cc/" xmlns:dc="http://purl.org/dc/elements/1.1/" xmlns:inkscape="http://www.inkscape.org/namespaces/inkscape" xmlns:rdf="http://www.w3.org/1999/02/22-rdf-syntax-ns#" xmlns:sodipodi="http://inkscape.sourceforge.net/DTD/sodipodi-0.dtd" xmlns:svg="http://www.w3.org/2000/svg">
  <metadata>
    <rdf:RDF xmlns:cc="http://web.resource.org/cc/" xmlns:dc="http://purl.org/dc/elements/1.1/" xmlns:rdf="http://www.w3.org/1999/02/22-rdf-syntax-ns#">
      <cc:Work rdf:about="">
        <dc:title>AIGA_Symbol_Signs</dc:title>
        <dc:description>EPS converted from  http://aiga.org</dc:description>
        <dc:subject>
          <rdf:Bag>
            <rdf:li>symbol</rdf:li>
            <rdf:li>mapsym</rdf:li>
          </rdf:Bag>
        </dc:subject>
        <dc:publisher>
          <cc:Agent rdf:about="http://www.openclipart.org/">
            <dc:title>Open Clip Art Library</dc:title>
          </cc:Agent>
        </dc:publisher>
        <dc:creator>
          <cc:Agent>
            <dc:title>Jean-Victor Balin</dc:title>
          </cc:Agent>
        </dc:creator>
        <dc:rights>
          <cc:Agent>
            <dc:title>Jean-Victor Balin</dc:title>
          </cc:Agent>
        </dc:rights>
        <dc:date></dc:date>
        <dc:format>image/svg+xml</dc:format>
        <dc:type rdf:resource="http://purl.org/dc/dcmitype/StillImage"/>
        <cc:license rdf:resource="http://web.resource.org/cc/PublicDomain"/>
        <dc:language>en</dc:language>
      </cc:Work>
      <cc:License rdf:about="http://web.resource.org/cc/PublicDomain">
        <cc:permits rdf:resource="http://web.resource.org/cc/Reproduction"/>
        <cc:permits rdf:resource="http://web.resource.org/cc/Distribution"/>
        <cc:permits rdf:resource="http://web.resource.org/cc/DerivativeWorks"/>
      </cc:License>
    </rdf:RDF>
  </metadata>
  <sodipodi:namedview bordercolor="#666666" borderopacity="1.0" id="base" inkscape:current-layer="svg3655" inkscape:cx="305.25953" inkscape:cy="417.84947" inkscape:pageopacity="0.0" inkscape:pageshadow="2" inkscape:window-height="543" inkscape:window-width="640" inkscape:window-x="5" inkscape:window-y="70" inkscape:zoom="0.43415836" pagecolor="#ffffff"/>
  <defs id="defs3657">
    <marker id="ArrowEnd" markerHeight="3" markerUnits="strokeWidth" markerWidth="4" orient="auto" refX="0" refY="5" viewBox="0 0 10 10">
      <path d="M 0 0 L 10 5 L 0 10 z" id="path3660"/>
    </marker>
    <marker id="ArrowStart" markerHeight="3" markerUnits="strokeWidth" markerWidth="4" orient="auto" refX="10" refY="5" viewBox="0 0 10 10">
      <path d="M 10 0 L 0 5 L 10 10 z" id="path3663"/>
    </marker>
  </defs>
  <g id="g3665">
    <path d="M 82.4318 17.9239C 41.0968 17.9239 17.8608 39.2949 17.8608 82.9599L 17.8608 533.082C 17.8608 573.925 38.7518 595.31 80.0528 595.31L 532.077 595.31C 573.38 595.31 594.303 574.99 594.303 533.082L 594.303 82.9599C 594.303 40.3599 573.38 17.9239 530.78 17.9239C 530.78 17.9239 82.2888 17.7819 82.4318 17.9239z" id="path3667" style="stroke:#ffffff; stroke-width:3.4079999999999999; fill:#000000"/>
    <path d="M 482.155 342.516L 301.956 522.715L 121.759 342.516L 121.759 223.666L 258.824 360.727L 258.824 91.3919L 346.047 91.3919L 346.047 359.769L 482.368 223.451L 482.155 342.516z" id="path3669" style="stroke:none; fill:#ffffff"/>
  </g>
</svg>

<svg height="613.171" width="612.164" xmlns="http://www.w3.org/2000/svg"><defs><marker markerWidth="4" orient="auto" refY="5" viewBox="0 0 10 10"><path d="M0 0l10 5-10 5z"/></marker><marker markerWidth="4" orient="auto" refX="10" refY="5" viewBox="0 0 10 10"><path d="M10 0L0 5l10 5z"/></marker></defs><g><path d="M82.432 17.924c-41.335 0-64.57 21.37-64.57 65.036v450.122c0 40.843 20.89 62.228 62.19 62.228h452.025c41.303 0 62.226-20.32 62.226-62.228V82.96c0-42.6-20.923-65.036-63.523-65.036 0 0-448.49-.142-448.348 0z" stroke="#fff" stroke-width="3.408"/><path d="M482.155 342.516l-180.2 180.2-180.196-180.2v-118.85l137.064 137.06V91.393h87.223V359.77l136.32-136.32-.212 119.066z" fill="#fff"/></g></svg>
